app/img/subscription-bg.svg

<svg width="1440" height="665" viewBox="0 0 1440 665" fill="none" xmlns="http://www.w3.org/2000/svg">
<mask id="mask0" mask-type="alpha" maskUnits="userSpaceOnUse" x="0" y="0" width="1440" height="665">
<rect width="1440" height="665" fill="#644BEC"/>
</mask>
<g mask="url(#mask0)">
<rect width="1440" height="665" fill="#F0EDFE"/>
<path d="M446.145 123H458.385C461.451 123 463.825 123.6 465.505 124.8C467.211 125.973 468.065 127.733 468.065 130.08C468.065 133.2 466.651 135.24 463.825 136.2C465.371 136.653 466.651 137.453 467.665 138.6C468.678 139.72 469.185 141.24 469.185 143.16C469.185 144.68 468.851 145.987 468.185 147.08C467.518 148.147 466.611 148.947 465.465 149.48C464.345 150.013 463.185 150.4 461.985 150.64C460.811 150.88 459.545 151 458.185 151H446.145V123ZM463.185 142.52C463.185 140.12 461.598 138.92 458.425 138.92H452.105V146.12H458.105C459.678 146.12 460.918 145.867 461.825 145.36C462.731 144.853 463.185 143.907 463.185 142.52ZM462.105 131.12C462.105 128.987 460.691 127.92 457.865 127.92H452.145V134.32H458.185C459.358 134.32 460.305 134.053 461.025 133.52C461.745 132.96 462.105 132.16 462.105 131.12ZM482.77 151H472.77V131.8H478.33V137.8H482.77C485.197 137.8 487.09 138.427 488.45 139.68C489.837 140.907 490.53 142.48 490.53 144.4C490.53 146.32 489.837 147.907 488.45 149.16C487.09 150.387 485.197 151 482.77 151ZM478.29 141.8V147H481.41C482.503 147 483.343 146.773 483.93 146.32C484.517 145.867 484.81 145.227 484.81 144.4C484.81 143.573 484.517 142.933 483.93 142.48C483.343 142.027 482.503 141.8 481.41 141.8H478.29ZM499.21 151H493.65V131.8H499.21V151ZM523.582 142.24C523.582 145.2 522.635 147.493 520.742 149.12C518.849 150.747 516.395 151.56 513.382 151.56C510.342 151.56 507.875 150.613 505.982 148.72C504.089 146.8 503.142 143.88 503.142 139.96C503.142 133.747 505.102 129.413 509.022 126.96C510.569 126 512.235 125.32 514.022 124.92C515.835 124.52 517.409 124.187 518.742 123.92C520.102 123.653 521.155 123.16 521.902 122.44V127.52C520.995 128.267 519.462 128.813 517.302 129.16C515.169 129.48 513.515 129.947 512.342 130.56C511.329 131.12 510.529 131.907 509.942 132.92C509.355 133.907 508.982 134.933 508.822 136C510.262 134 512.342 133 515.062 133C517.515 133 519.542 133.827 521.142 135.48C522.769 137.133 523.582 139.387 523.582 142.24ZM508.822 142.28C508.822 143.533 509.195 144.653 509.942 145.64C510.689 146.627 511.835 147.12 513.382 147.12C514.929 147.12 516.062 146.64 516.782 145.68C517.529 144.693 517.902 143.56 517.902 142.28C517.902 141 517.529 139.88 516.782 138.92C516.062 137.933 514.929 137.44 513.382 137.44C511.862 137.44 510.715 137.947 509.942 138.96C509.195 139.947 508.822 141.053 508.822 142.28ZM526.182 141.4C526.182 139.667 526.489 138.133 527.102 136.8C527.716 135.44 528.516 134.373 529.502 133.6C530.516 132.827 531.569 132.24 532.662 131.84C533.782 131.44 534.916 131.24 536.062 131.24C537.982 131.24 539.636 131.6 541.022 132.32C542.436 133.04 543.476 133.973 544.142 135.12C544.809 136.24 545.262 137.52 545.502 138.96C545.769 140.373 545.702 141.787 545.302 143.2H531.782C532.076 144.533 532.849 145.533 534.102 146.2C535.356 146.84 536.836 147.16 538.542 147.16C540.649 147.16 542.582 146.773 544.342 146V150.36C542.449 151.16 540.102 151.56 537.302 151.56C534.102 151.56 531.449 150.667 529.342 148.88C527.236 147.093 526.182 144.6 526.182 141.4ZM540.302 139.6C540.436 138.72 540.182 137.813 539.542 136.88C538.902 135.947 537.809 135.48 536.262 135.48C535.036 135.48 533.982 135.853 533.102 136.6C532.222 137.32 531.769 138.32 531.742 139.6H540.302ZM553.979 134.6C555.553 132.36 557.873 131.24 560.939 131.24C563.846 131.24 566.126 132.24 567.779 134.24C569.459 136.213 570.299 138.6 570.299 141.4C570.299 144.2 569.459 146.6 567.779 148.6C566.126 150.573 563.846 151.56 560.939 151.56C558.299 151.56 556.193 150.693 554.619 148.96V159.8H549.059V131.8H553.979V134.6ZM563.259 145.32C564.166 144.253 564.619 142.947 564.619 141.4C564.619 139.853 564.166 138.56 563.259 137.52C562.353 136.453 561.126 135.92 559.579 135.92C558.433 135.92 557.406 136.227 556.499 136.84C555.619 137.453 554.979 138.213 554.579 139.12V143.68C554.979 144.587 555.619 145.347 556.499 145.96C557.406 146.573 558.433 146.88 559.579 146.88C561.126 146.88 562.353 146.36 563.259 145.32ZM578.782 151H573.942V131.8H579.502V142.6L588.062 131.8H592.862V151H587.342V140.2L578.782 151ZM607.495 151H601.975V136.48H595.855V131.8H613.615V136.48H607.495V151ZM615.01 141.4C615.01 139.667 615.317 138.133 615.93 136.8C616.544 135.44 617.344 134.373 618.33 133.6C619.344 132.827 620.397 132.24 621.49 131.84C622.61 131.44 623.744 131.24 624.89 131.24C626.81 131.24 628.464 131.6 629.85 132.32C631.264 133.04 632.304 133.973 632.97 135.12C633.637 136.24 634.09 137.52 634.33 138.96C634.597 140.373 634.53 141.787 634.13 143.2H620.61C620.904 144.533 621.677 145.533 622.93 146.2C624.184 146.84 625.664 147.16 627.37 147.16C629.477 147.16 631.41 146.773 633.17 146V150.36C631.277 151.16 628.93 151.56 626.13 151.56C622.93 151.56 620.277 150.667 618.17 148.88C616.064 147.093 615.01 144.6 615.01 141.4ZM629.13 139.6C629.264 138.72 629.01 137.813 628.37 136.88C627.73 135.947 626.637 135.48 625.09 135.48C623.864 135.48 622.81 135.853 621.93 136.6C621.05 137.32 620.597 138.32 620.57 139.6H629.13ZM658.515 151H646.755V131.8H658.195C660.328 131.8 661.915 132.293 662.955 133.28C663.995 134.24 664.515 135.44 664.515 136.88C664.515 139.067 663.528 140.533 661.555 141.28C663.821 142.027 664.955 143.533 664.955 145.8C664.955 147.32 664.448 148.573 663.435 149.56C662.421 150.52 660.781 151 658.515 151ZM652.315 143.04V147.2H656.875C658.581 147.2 659.435 146.52 659.435 145.16C659.435 143.747 658.581 143.04 656.875 143.04H652.315ZM652.275 135.6V139.68H656.515C658.115 139.68 658.915 139.013 658.915 137.68C658.915 136.293 658.101 135.6 656.475 135.6H652.275ZM685.868 146.04C685.868 146.893 686.321 147.32 687.228 147.32C687.601 147.32 687.948 147.267 688.268 147.16V150.8C687.254 151.173 686.228 151.36 685.188 151.36C683.161 151.36 681.748 150.64 680.948 149.2C678.948 150.773 676.641 151.56 674.028 151.56C672.134 151.56 670.534 151.04 669.228 150C667.948 148.933 667.308 147.493 667.308 145.68C667.308 144.16 667.761 142.893 668.668 141.88C669.574 140.867 670.628 140.187 671.828 139.84C673.028 139.467 674.334 139.28 675.748 139.28C677.321 139.28 678.841 139.453 680.308 139.8V139.12C680.308 138.133 679.921 137.347 679.148 136.76C678.374 136.173 677.254 135.88 675.788 135.88C673.654 135.88 671.388 136.36 668.988 137.32V132.52C671.548 131.667 674.028 131.24 676.428 131.24C682.721 131.24 685.868 134.133 685.868 139.92V146.04ZM677.028 142.6C675.881 142.6 674.921 142.813 674.148 143.24C673.374 143.667 672.988 144.333 672.988 145.24C672.988 145.933 673.268 146.507 673.828 146.96C674.414 147.387 675.134 147.6 675.988 147.6C677.668 147.6 679.108 147.08 680.308 146.04V143.04C679.081 142.747 677.988 142.6 677.028 142.6ZM696.167 134.6C697.74 132.36 700.06 131.24 703.127 131.24C706.033 131.24 708.313 132.24 709.967 134.24C711.647 136.213 712.487 138.6 712.487 141.4C712.487 144.2 711.647 146.6 709.967 148.6C708.313 150.573 706.033 151.56 703.127 151.56C700.487 151.56 698.38 150.693 696.807 148.96V159.8H691.247V131.8H696.167V134.6ZM705.447 145.32C706.353 144.253 706.807 142.947 706.807 141.4C706.807 139.853 706.353 138.56 705.447 137.52C704.54 136.453 703.313 135.92 701.767 135.92C700.62 135.92 699.593 136.227 698.687 136.84C697.807 137.453 697.167 138.213 696.767 139.12V143.68C697.167 144.587 697.807 145.347 698.687 145.96C699.593 146.573 700.62 146.88 701.767 146.88C703.313 146.88 704.54 146.36 705.447 145.32ZM720.97 151H716.13V131.8H721.69V142.6L730.25 131.8H735.05V151H729.53V140.2L720.97 151ZM756.922 146.04C756.922 146.893 757.376 147.32 758.282 147.32C758.656 147.32 759.002 147.267 759.322 147.16V150.8C758.309 151.173 757.282 151.36 756.242 151.36C754.216 151.36 752.802 150.64 752.002 149.2C750.002 150.773 747.696 151.56 745.082 151.56C743.189 151.56 741.589 151.04 740.282 150C739.002 148.933 738.362 147.493 738.362 145.68C738.362 144.16 738.816 142.893 739.722 141.88C740.629 140.867 741.682 140.187 742.882 139.84C744.082 139.467 745.389 139.28 746.802 139.28C748.376 139.28 749.896 139.453 751.362 139.8V139.12C751.362 138.133 750.976 137.347 750.202 136.76C749.429 136.173 748.309 135.88 746.842 135.88C744.709 135.88 742.442 136.36 740.042 137.32V132.52C742.602 131.667 745.082 131.24 747.482 131.24C753.776 131.24 756.922 134.133 756.922 139.92V146.04ZM748.082 142.6C746.936 142.6 745.976 142.813 745.202 143.24C744.429 143.667 744.042 144.333 744.042 145.24C744.042 145.933 744.322 146.507 744.882 146.96C745.469 147.387 746.189 147.6 747.042 147.6C748.722 147.6 750.162 147.08 751.362 146.04V143.04C750.136 142.747 749.042 142.6 748.082 142.6ZM767.861 151H762.301V131.8H767.861V139.08H775.621V131.8H781.181V151H775.621V143.72H767.861V151ZM795.815 151H790.295V136.48H784.175V131.8H801.935V136.48H795.815V151ZM819.346 151H813.786V131.8H832.666V151H827.106V136.48H819.346V151ZM839.38 148.88C837.326 147.093 836.3 144.6 836.3 141.4C836.3 138.2 837.326 135.707 839.38 133.92C841.433 132.133 843.94 131.24 846.9 131.24C849.886 131.24 852.393 132.133 854.42 133.92C856.473 135.707 857.5 138.2 857.5 141.4C857.5 144.6 856.473 147.093 854.42 148.88C852.393 150.667 849.886 151.56 846.9 151.56C843.94 151.56 841.433 150.667 839.38 148.88ZM850.54 145.16C851.42 144.173 851.86 142.92 851.86 141.4C851.86 139.88 851.42 138.64 850.54 137.68C849.66 136.693 848.446 136.2 846.9 136.2C845.353 136.2 844.14 136.693 843.26 137.68C842.406 138.64 841.98 139.88 841.98 141.4C841.98 142.92 842.406 144.173 843.26 145.16C844.14 146.12 845.353 146.6 846.9 146.6C848.446 146.6 849.66 146.12 850.54 145.16ZM864.222 156.08H859.102V146.76H861.782C863.782 143.293 864.715 138.307 864.582 131.8H880.382V146.76H883.262V156.08H878.142V151H864.222V156.08ZM869.702 136.04C869.542 140.413 868.822 143.987 867.542 146.76H874.862V136.04H869.702ZM892.275 151H886.715V131.8H905.595V151H900.035V136.48H892.275V151ZM915.149 151H910.309V131.8H915.869V142.6L924.429 131.8H929.229V151H923.709V140.2L915.149 151ZM932.862 141.68C932.862 139.92 933.169 138.347 933.782 136.96C934.422 135.573 935.262 134.48 936.302 133.68C937.342 132.853 938.489 132.24 939.742 131.84C940.995 131.413 942.315 131.2 943.702 131.2C945.915 131.2 947.889 131.667 949.622 132.6V137.48C948.129 136.52 946.422 136.04 944.502 136.04C942.822 136.04 941.409 136.48 940.262 137.36C939.115 138.24 938.542 139.587 938.542 141.4C938.542 143.133 939.115 144.467 940.262 145.4C941.409 146.307 942.795 146.76 944.422 146.76C946.475 146.76 948.275 146.293 949.822 145.36V150.28C947.822 151.133 945.662 151.56 943.342 151.56C940.462 151.56 937.995 150.72 935.942 149.04C933.889 147.333 932.862 144.88 932.862 141.68ZM959.229 151H953.669V131.8H959.229V138.96H961.549L966.429 131.8H972.669L966.069 141.28L973.229 151H966.989L961.469 143.4H959.229V151ZM980.423 151H975.583V131.8H981.143V142.6L989.703 131.8H994.503V151H988.983V140.2L980.423 151Z" fill="#141D30"/>
<path opacity="0.2" d="M324.229 699.422C218.841 481.054 -46.6338 339.386 -35.678 608.793C-24.7222 878.199 103.436 783.069 137.425 815.686C-14.145 774.563 -287.351 641.973 -167.617 440.596C-47.8819 239.22 -216.145 318.638 -315.243 383.519L-16.2662 73.8794" stroke="#644BEC" stroke-width="5"/>
<path opacity="0.2" d="M183.448 827.09C392.439 345.085 -147.238 158.465 -136.425 427.969C-125.612 697.473 9.50851 881.574 43.5114 914.185C-108.178 873.132 -477.453 889.829 -357.491 688.307C-237.529 486.785 -310.109 417.146 -409.338 482.108L-67.6826 180.086" stroke="#644BEC" stroke-width="5"/>
<path opacity="0.2" d="M1073.4 647.976L1320.89 831.699M1073.4 647.976L1165.19 644.689M1073.4 647.976L1209.88 461.118M1320.89 831.699L1349.99 737.581M1320.89 831.699L1165.19 644.689M1349.99 737.581L1383.86 639.22M1349.99 737.581L1165.19 644.689M1383.86 639.22L1441.98 806.21L1601.73 568.266M1383.86 639.22L1165.19 644.689M1383.86 639.22L1601.73 568.266M1383.86 639.22L1516.5 441.546M1383.86 639.22L1209.88 461.118M1601.73 568.266L1562.68 292.333M1601.73 568.266L1839.64 515.033L1562.68 292.333M1601.73 568.266L1516.5 441.546M1562.68 292.333L1516.5 441.546M1562.68 292.333L1379.54 347.004L1209.88 461.118M1165.19 644.689L1209.88 461.118M1516.5 441.546L1209.88 461.118" stroke="#644BEC" stroke-width="5"/>
</g>
</svg>

<?xml version="1.0" encoding="utf-8"?>
<!-- Generator: Adobe Illustrator 23.0.2, SVG Export Plug-In . SVG Version: 6.00 Build 0)  -->
<svg version="1.1" id="Слой_1" xmlns="http://www.w3.org/2000/svg" xmlns:xlink="http://www.w3.org/1999/xlink" x="0px" y="0px"
	 viewBox="0 0 1440 665" style="enable-background:new 0 0 1440 665;" xml:space="preserve">
<style type="text/css">
	.st0{fill:#644BEC;filter:url(#Adobe_OpacityMaskFilter);}
	.st1{mask:url(#mask0_1_);}
	.st2{fill:#F0EDFE;}
	.st3{opacity:0.2;fill:none;stroke:#644BEC;stroke-width:5;enable-background:new    ;}
</style>
<defs>
	<filter id="Adobe_OpacityMaskFilter" filterUnits="userSpaceOnUse" x="-411" y="0" width="2256.2" height="916.6">
		<feColorMatrix  type="matrix" values="1 0 0 0 0  0 1 0 0 0  0 0 1 0 0  0 0 0 1 0"/>
	</filter>
</defs>
<mask maskUnits="userSpaceOnUse" x="-411" y="0" width="2256.2" height="916.6" id="mask0_1_">
	<rect class="st0" width="1440" height="665"/>
</mask>
<g class="st1">
	<rect class="st2" width="1440" height="665"/>
	<path class="st3" d="M324.2,699.4c-105.4-218.4-370.9-360-359.9-90.6c11,269.4,139.1,174.3,173.1,206.9
		c-151.6-41.1-424.8-173.7-305-375.1c119.7-201.4-48.5-122-147.6-57.1l299-309.6"/>
	<path class="st3" d="M183.4,827.1c209-482-330.7-668.6-319.9-399.1S9.5,881.6,43.5,914.2c-151.7-41.1-521-24.4-401-225.9
		s47.4-271.2-51.8-206.2l341.7-302"/>
	<path class="st3" d="M1073.4,648l247.5,183.7 M1073.4,648l91.8-3.3 M1073.4,648l136.5-186.9 M1320.9,831.7l29.1-94.1 M1320.9,831.7
		l-155.7-187 M1350,737.6l33.9-98.4 M1350,737.6l-184.8-92.9 M1383.9,639.2l58.1,167l159.8-237.9 M1383.9,639.2l-218.7,5.5
		 M1383.9,639.2l217.9-71 M1383.9,639.2l132.6-197.7 M1383.9,639.2l-174-178.1 M1601.7,568.3l-39-275.9 M1601.7,568.3l237.9-53.2
		l-277-222.7 M1601.7,568.3l-85.2-126.7 M1562.7,292.3l-46.2,149.2 M1562.7,292.3L1379.5,347l-169.7,114.1 M1165.2,644.7l44.7-183.6
		 M1516.5,441.5l-306.6,19.6"/>
</g>
</svg>
